X: 4
T: Her Long Dark Hair Flowing Down Her Back
R: hornpipe
M: 4/4
L: 1/8
K: Dmaj
Bc|:dcBd c2BG|FD~D2 FGBc|dcBd c2Bc|dggf g2fe|dcBd c2BG|FD~D2 FGBc|dcBd cBGF|G2GF G2 Bc:||dffg fdcd|BGFG B3c|dggf g2fe|dcBd ~c2Bc|dffg fdcd|BGFG B3c|dcBd cBGF|G2GF G2 Bc:||


Tune 1263	Setting 1263

